X:11
T:Rakes of Kildare
S:Sean Gavin
R:Jig
M:6/8
K:Dmix
DGG GFG | ABc d2e | fef ded | cAG FEF |
|[1 DGG GFG | ABc d2e | fed cAF | G3 GFE :|
|[2 G2A BAG | ABc d2e | fed cAF | G3 G2d ]|
|: gdg gdg | gdg a2g | fef ded | cAG FEF |
|[1 gdg gdg | gdg a2g | fed cAF | G3 G2d :|
|[2 B3 BAG | ABc d2e | fed cAF | G3 GFE ]|
 

